!!!!SEGMENT: pl-lzu--m-15111--001-001_noskowski-zygmunt--spiewnik-dla-dzieci-op-34-1-zla-zima.krn
!!!cenid: 18xx:4698
!!!COM: Noskowski, Zygmunt
!!!COM-rismID: pe106604
!!!CDT: 1846/05/02-1909/07/23
!!!CNT: Polish
!!!GTL: Śpiewnik dla dzieci, op. 34
!!!OTL: 1. Zła Zima
!!!OMV: 001
!!!PDT: 1890
!!!AGN: Secular; Song; Children
!!!YEC: Copyright 2022 Narodowy Instytut Fryderyka Chopina (https://polishscores.org)
!!!YEM: License CC-BY-4.0 (https://creativecommons.org/licenses/by/4.0)
!!!SMS-siglum: PL-LŹu
!!!SMS-shelfmark: M 15111
!!!SMS-variant:
!!!SMS-altvar:
!!!SMS-shelfwork: 001-001 G
!!!NIFC-rismSourceID: 1001234040
!!!NIFC-rismChildID: 1001234040
!!!NIFC-islandoraID: pl-lzu:5455
!!!URL-pdf-islandora: https://repozytorium.nifc.pl/islandora/object/pl-lzu%3A5455/datastream/PDF/view
!!!URL-scan: https://polish.musicsources.pl/pl/lokalizacje/galeria/druki-muzyczne/23228/8 @EN{Scan on Polish Music Sources Website} @PL{Skany w portalu Dziedzictwo Muzyki Polskiej w otwartym dostępie}
!!!IIIF:
!!!ONB-nifc:
!!!AIN: 1 piano 1 vox
!!!key: f#
!!!OMD: Allegro non troppo ma risoluto.
**kern	**kern	**dynam	**kern	**text	**text	**text	**dynam
*part2	*part2	*part2	*part1	*part1	*part1	*part1	*part1
*staff3	*staff2	*staf2,3	*staff1	*staff1	*staff1	*staff1	*staff1
*I"[Piano]	*I"[Piano]	*	*I"[Voice]	*	*	*	*
*I'pf	*I'pf	*	*I'V	*	*	*	*
*Ipiano	*Ipiano	*	*Ivox	*	*	*	*
*ICklav	*ICklav	*	*ICvox	*	*	*	*
*IGacomp	*IGacomp	*	*IGsolo	*	*	*	*
*>[A,B,B,B]	*>[A,B,B,B]	*>[A,B,B,B]	*>[A,B,B,B]	*>[A,B,B,B]	*>[A,B,B,B]	*>[A,B,B,B]	*>[A,B,B,B]
*>A	*>A	*>A	*>A	*>A	*>A	*>A	*>A
*clefF4	*clefG2	*	*clefG2	*	*	*	*
*k[f#c#g#]	*k[f#c#g#]	*	*k[f#c#g#]	*	*	*	*
*f#:	*f#:	*	*f#:	*	*	*	*
*M2/4	*M2/4	*	*M2/4	*	*	*	*
=1	=1	=1	=1	=1	=1	=1	=1
!	!LO:TX:a:i:t=Żwawo i silnie.	!LO:DY:rj	!	!	!	!	!
(16F#^\LL	(16f#^/LL	f	2r	.	.	.	.
16G#\	16g#/	.	.	.	.	.	.
16F#\	16f#/	.	.	.	.	.	.
16G#\JJ	16g#/JJ	.	.	.	.	.	.
16A\LL	16a/LL	.	.	.	.	.	.
16B\	16b/	.	.	.	.	.	.
16A\	16a/	.	.	.	.	.	.
16G#\JJ)	16g#/JJ)	.	.	.	.	.	.
=2	=2	=2	=2	=2	=2	=2	=2
(16A^\LL	(16a^/LL	.	2r	.	.	.	.
16G#\	16g#/	.	.	.	.	.	.
16F#\	16f#/	.	.	.	.	.	.
16G#\JJ	16g#/JJ	.	.	.	.	.	.
16A\LL	16a/LL	.	.	.	.	.	.
16B\	16b/	.	.	.	.	.	.
16A\	16a/	.	.	.	.	.	.
16G#\JJ)	16g#/JJ)	.	.	.	.	.	.
=3	=3	=3	=3	=3	=3	=3	=3
(16A^\LL	(16a^/LL	.	2r	.	.	.	.
16G#\	16g#/	.	.	.	.	.	.
16F#\	16f#/	.	.	.	.	.	.
16G#\JJ	16g#/JJ	.	.	.	.	.	.
16A\LL	16a/LL	.	.	.	.	.	.
16G#\	16g#/	.	.	.	.	.	.
16A\	16a/	.	.	.	.	.	.
16B\JJ)	16b/JJ)	.	.	.	.	.	.
=4	=4	=4	=4	=4	=4	=4	=4
8c#\L	8cc#^/L	.	2r	.	.	.	.
8C#\J	8c#/J	sfz	.	.	.	.	.
4r	4r	.	.	.	.	.	.
!!LO:LB:g=original
=5||	=5||	=5||	=5||	=5||	=5||	=5||	=5||
=!|:	=!|:	=!|:	=!|:	=!|:	=!|:	=!|:	=!|:
*>B	*>B	*>B	*>B	*>B	*>B	*>B	*>B
*	*	*	*	*v:1.2.3.	*	*	*
!	!	!LO:DY:rj	!	!	!	!	!LO:DY:a
4F#\ 4A	4c#/ 4f#	f	8f#/	Hu!	.	.	f
.	.	.	8f#/	hu!	.	.	.
4E\ 4G#	4c#/ 4g# 4cc#	.	4cc#^\	ha!	.	.	.
=6	=6	=6	=6	=6	=6	=6	=6
4D\ 4F#	4A/ 4c# 4f#	.	8f#/	Hu!	.	.	.
.	.	.	8f#/	hu!	.	.	.
4C#\ 4G#	4c#/ 4e#X 4cc#	.	4cc#^\	ha!	.	.	.
=7	=7	=7	=7	=7	=7	=7	=7
*	*^	*	*	*	*	*	*
4.GG#/ 4.G#	8.b/L	4.d\ 4.f#	.	8.b/	Na-	.	.	.
.	16a/Jk	.	.	16a/	-sza	.	.	.
.	8b/L	.	.	8b/	zi-	.	.	.
8CC#/ 8C#	8cc#/J	8c#\ 8e#X	.	8cc#\	-ma	.	.	.
*	*v	*v	*	*	*	*	*	*
=8	=8	=8	=8	=8	=8	=8	=8
16FF#/LL	2c#/ 2f# 2a	>	2a/	zła!	.	.	.
16C#/	.	.	.	.	.	.	.
16FF#/	.	.	.	.	.	.	.
16C#/JJ	.	.	.	.	.	.	.
16FF#/LL	.	.	.	.	.	.	.
!LO:TX:b:t=1*	!	!	!	!	!	!	!
16C#/	.	.	.	.	.	.	.
16FF#/	.	.	.	.	.	.	.
16C#/JJ	.	]	.	.	.	.	.
!!LO:PB:g=original
=9	=9	=9	=9	=9	=9	=9	=9
*	*	*	*	*v:1	*v:2	*v:3	*
!	!	!LO:DY:rj	!	!	!	!	!LO:DY:a:rj
16FF#/LL	8.B^/L 8.f# 8.g#	p	8.g#^>/	Szczy-	Płach-	A	mf
16C#/	.	.	.	.	.	.	.
16FF#/	.	.	.	.	.	.	.
16C#/JJ	16B'/Jk 16f# 16g#	.	16g#/	-pie	-ta	my	.
16FF#/LL	8B'/L 8f# 8g#	.	8g#/	w no-	na	jej	.
16C#/	.	.	.	.	.	.	.
16FF#/	8c#'/J 8f# 8a	.	8a/	-sy,	niej	się	.
16C#/JJ	.	.	.	.	.	.	.
=10	=10	=10	=10	=10	=10	=10	=10
16FF#/LL	8A'/L 8f#	.	8f#/	szczy-	dłu-	nie	.
16C#/	.	.	.	.	.	.	.
16FF#/	8B'/ 8f# 8g#	.	8g#/	-pie	-ga,	bo-	.
16C#/JJ	.	.	.	.	.	.	.
16FF#/LL	8c#'/ 8f# 8a	.	8a/	w u-	bia-	-i-	.
16C#/	.	.	.	.	.	.	.
16FF#/	8A'/J 8f#	.	8f#/	-szy,	-ła,	-my,	.
16C#/JJ	.	.	.	.	.	.	.
=11	=11	=11	=11	=11	=11	=11	=11
16FF#/LL	8.B^/L 8.f# 8.g#	.	8.g#^>/	Mro-	W rę-	Da-	.
16C#/	.	.	.	.	.	.	.
16FF#/	.	.	.	.	.	.	.
16C#/JJ	16B'/Jk 16f# 16g#	.	16g#/	-źnym	-ku	-lej	.
16FF#/LL	8B'/L 8f# 8g#	.	8g#/	śnie-	ga-	śnież-	.
16C#/	.	.	.	.	.	.	.
16FF#/	8c#'/J 8f# 8a	.	8a/	-giem	-łąź	-kiem	.
16C#/JJ	.	.	.	.	.	.	.
=12	=12	=12	=12	=12	=12	=12	=12
16FF#/LL	8A'/L 8f#	.	8f#/	w o-	o-	w ple-	.
16C#/	.	.	.	.	.	.	.
16FF#/	8B'/ 8f# 8g#	.	8g#/	-czy	-szro-	-cy	.
16C#/JJ	.	.	.	.	.	.	.
16FF#/LL	8c#'/ 8f# 8a	.	8a/	pru-	-nia-	zi-	.
16C#/	.	.	.	.	.	.	.
16FF#/	8e'/J 8f# 8cc#	.	8cc#\	-szy,	-ła	-my	.
16C#/JJ	.	.	.	.	.	.	.
!!LO:LB:g=original
=13	=13	=13	=13	=13	=13	=13	=13
*	*	*	*	*v:1	*v:2	*v:3	*
16FF#/LL	8d'/L 8f# 8b	.	8b/	Wi-	A	Niech	.
16C#/	.	.	.	.	.	.	.
16FF#/	8c#'/ 8f# 8a	.	8a/	-chrem	na	pa-	.
16C#/JJ	.	.	.	.	.	.	.
16FF#/LL	8B'/ 8f# 8g#	.	8g#/	w po-	ple-	-mią-	.
16C#/	.	.	.	.	.	.	.
16FF#/	8A'/J 8f#	.	8f#/	-lu	-cach	-tkę	.
16C#/JJ	.	.	.	.	.	.	.
=14	=14	=14	=14	=14	=14	=14	=14
16FF#/LL	2B/ 2e#X 2g#	.	2g#/	gna!	drwa...	ma.	.
16C#/	.	.	.	.	.	.	.
16FF#/	.	.	.	.	.	.	.
16C#/JJ	.	.	.	.	.	.	.
16FF#/LL	.	.	.	.	.	.	.
16C#/	.	.	.	.	.	.	.
16FF#/	.	.	.	.	.	.	.
16C#/JJ	.	.	.	.	.	.	.
=15	=15	=15	=15	=15	=15	=15	=15
*	*	*	*	*v:1.2.3.	*	*	*
!	!	!	!	!	!	!	!LO:DY:a:rj
4FF#/	8.A/L 8.f# 8.a	<	8.a/	Na-	.	.	f
.	16g#/Jk	.	16g#/	-sza	.	.	.
8r	8a/L	.	8a/	zi-	.	.	.
8EE/ 8E	8en/J 8g# 8b	[	8b/	-ma	.	.	.
=16	=16	=16	=16	=16	=16	=16	=16
4AA/ 4A	4e/ 4a 4cc#	f	(<4cc#\	zła!	.	.	.
4CC#;/ 4C#	4e;/ 4g# 4ee	.	4ee;\)	.	.	.	.
=17	=17	=17	=17	=17	=17	=17	=17
!	!	!	!	!	!	!	!LO:DY:a
4BBB/ 4BB	8.f#/L 8.a 8.dd	>	8.dd\	Na-	.	.	>
.	16cc#/Jk	.	16cc#\	-sza	.	.	.
8r	8b/L	.	8b/	zi-	.	.	.
8CC#/ 8C#	8B/J 8e#X 8g#	]	8g#/	-ma	.	.	]
!!LO:LB:g=original
=18	=18	=18	=18	=18	=18	=18	=18
*	*	*	*	*v:1.2.3.	*	*	*
4FF#/ 4C#	4A/ 4f#	.	[2f#/	zła!	.	.	.
4r	4r	.	.	.	.	.	.
=19	=19	=19	=19	=19	=19	=19	=19
8F#\L 8c#	(16ff#^\LL	mf	2f#/_	.	.	.	.
.	16cc#\	.	.	.	.	.	.
8F#\J 8c#	16aa\	.	.	.	.	.	.
.	16gg#\JJ	.	.	.	.	.	.
4F#^\ 4d	16ff#\LL	.	.	.	.	.	.
.	16gg#\	.	.	.	.	.	.
.	16aa\	.	.	.	.	.	.
.	16ccc#\JJ)	.	.	.	.	.	.
=20	=20	=20	=20	=20	=20	=20	=20
8F#\L 8c#	(16ff#^\LL	.	4f#/]	.	.	.	.
.	16cc#\	.	.	.	.	.	.
8F#\J 8c#	16aa\	.	.	.	.	.	.
.	16gg#\JJ	.	.	.	.	.	.
4F#^\ 4d	16ff#\LL	.	4r	.	.	.	.
.	16gg#\	.	.	.	.	.	.
.	16aa\	.	.	.	.	.	.
.	16bb\JJ)	.	.	.	.	.	.
=21	=21	=21	=21	=21	=21	=21	=21
8F#'\L 8A	(16ccc#\LL	.	2r	.	.	.	.
.	16ddd\	.	.	.	.	.	.
8F#'\J 8A	16ccc#\	.	.	.	.	.	.
.	16fff#\JJ	.	.	.	.	.	.
8F#'\L 8B	16eee\LL	.	.	.	.	.	.
.	16ddd\	.	.	.	.	.	.
8F#'\J 8d	16ccc#\	.	.	.	.	.	.
.	16bb\JJ	.	.	.	.	.	.
=22	=22	=22	=22	=22	=22	=22	=22
8F#'\L 8c#	16aa\LL	.	2r	.	.	.	.
.	16bb\	.	.	.	.	.	.
8F#\J 8B	16gg#\	.	.	.	.	.	.
.	16ccc#\JJ)	.	.	.	.	.	.
8F#^\ 8A	8ff#^\	.	.	.	.	.	.
8r	8r	.	.	.	.	.	.
=:|!	=:|!	=:|!	=:|!	=:|!	=:|!	=:|!	=:|!
*-	*-	*-	*-	*-	*-	*-	*-
!!!system-decoration: p1{p2}
!!!RDF**kern: > = above
!!!RDF**kern: < = below
!!!ENC: Andrzej Gręziak
!!!END: 2025-03-03
!!!ENC: Marta Lawrence
!!!END: 2025-03-18
